X: 29780
T: O'Beirne's
R: hornpipe
M: 4/4
K: Dmajor
(3ABc|:dcdf ec (3ABc|dBGB AFDF|EGFA GEgf|(3efe (3dcB A2 (3ABc|dcdf edeg|fefg afdc|BdcB (3ABA (3GFE|(3DFA (3dAF D2 (3ABc:|
|:(3EAA Ac ecAc|edcB Adfa|gfeg fedf|(3efe (3dcB (3ABA (3GFE|DFAF EGBG|FAdf afdc|BdcB (3ABA (3GFE|(3DFA (3dAF D2z2:|

